X:1
T:De Boatman Dance
M:2/4
L:1/8
K:F
 F| dd cF| dd cc| dd c3/2 A/2| AA A2| d d/2d/2 cc| dd c2| d c/2c/2 cA|\
 GG/2-A/2 F2| A3/2 A/2 GF| c3 B| A3/2 A/2 GA| F3 G| AA G- A/2B/2| cc F F/2G/2|\
 G B/2A/2 G| A/2G/2| F2 F z| f2 f3/2 f/2| gf d2| c/2c/2 c/2c/2 A/2A/2 c/2A/2|\
 GA F2| f2 f3/2 f/2| gf d2| c/2c/2 c/2c/2 A/2A/2 c/2A/2| GA F2|
